F[BALLADE
CUT[Die verkaufte Muellerin
    Es gieng ein Mueller wohl ueber Feld,]
CNR[der hatt' einen Beutel und hatt' kein Geld,]
REG[Mitteleuropa, Deutschland]
SRC[4, S. 320
    1782 gedruckt]
KEY[Q0086A 08  G 4/4]
MEL[-5_  1_3b_2_5_  4_53b2_
    -5_  1_3b_2_5_  4_53b2_
    5_  5_4_5_3b2  3b_1_0_ //] >>
FCT[Ballade, Menschenhandel, Rettung, Hinrichtung]
